src/assets/icons/twitter.svg

<svg width="24" height="19" viewBox="0 0 24 19" fill="none" xmlns="http://www.w3.org/2000/svg">
<path d="M23.3029 2.24153C22.4458 2.62158 21.5239 2.87862 20.557 2.99342C21.5442 2.40196 22.3018 1.46612 22.6594 0.349168C21.7357 0.897127 20.7121 1.29464 19.6237 1.5089C18.7517 0.580188 17.5092 -0.000213623 16.1334 -0.000213623C13.4938 -0.000213623 11.353 2.14064 11.353 4.78025C11.353 5.15495 11.3954 5.51966 11.4774 5.86975C7.50442 5.67046 3.98173 3.7674 1.62376 0.87431C1.21234 1.5802 0.97633 2.40196 0.97633 3.27791C0.97633 4.93605 1.82091 6.39989 3.10292 7.25694C2.31967 7.23234 1.58204 7.01737 0.937827 6.65836C0.937471 6.67868 0.93747 6.699 0.93747 6.71897C0.93747 9.03522 2.58598 10.9672 4.77247 11.406C4.37175 11.5158 3.94857 11.5739 3.51327 11.5739C3.20453 11.5739 2.90542 11.5444 2.61379 11.4887C3.222 13.3875 4.98709 14.7697 7.07946 14.8086C5.44307 16.0909 3.38207 16.855 1.14175 16.855C0.756719 16.855 0.375252 16.8325 0.00198364 16.7879C2.11646 18.1448 4.62986 18.9359 7.32937 18.9359C16.1224 18.9359 20.931 11.6517 20.931 5.33392C20.931 5.12678 20.9264 4.92036 20.9171 4.71573C21.8519 4.04192 22.6622 3.20019 23.3029 2.24153Z" fill="#36BA5F"/>
</svg>

<svg xmlns="http://www.w3.org/2000/svg" width="24" height="19" fill="none"><path fill="#36BA5F" d="M23.3 2.24c-.85.38-1.78.64-2.74.75a4.8 4.8 0 0 0 2.1-2.64c-.92.55-1.95.94-3.04 1.16a4.78 4.78 0 0 0-8.14 4.36c-3.98-.2-7.5-2.1-9.86-5A4.76 4.76 0 0 0 3.1 7.26a4.75 4.75 0 0 1-2.16-.6v.06a4.78 4.78 0 0 0 3.83 4.69 4.76 4.76 0 0 1-2.16.08 4.79 4.79 0 0 0 4.47 3.32A9.6 9.6 0 0 1 0 16.79a13.52 13.52 0 0 0 7.33 2.15c8.8 0 13.6-7.29 13.6-13.6l-.01-.62a9.7 9.7 0 0 0 2.38-2.48Z"/></svg>
